X:310
T:Wood Lark.
C:John Malchair's Third Collection of Tunes
F:https://www.vwml.org/record/Malchair/3619/p31
F:www.vwml.org/topics/historic-dance-and-tune-books/Malchair
Z:Eric Conrad Jan 2020
N:NB1 No repeats in MS.  Assuming parts are repeated.
M:C|
L:1/8
K:F
P:A
|: "_NB1"fg | agfa gfeg | f2c2 c2f2 | g2a2 b2a2 | gfed c2fg |
agfa gfeg | f2c2 (fa)c2 | B2A2 G3F | F6 :|
P:B
|: cB | AFAc AFAc | BGBd BGBd | Acde fgag | e4 c2gf |
fafc fafc | egec egec | faga (ba)g2 | f6 :|

